src/main/resources/icons/Jsr45debugIcons/icons/jsr45.svg

<svg xmlns="http://www.w3.org/2000/svg" width="16" height="16" viewBox="0 0 16 16">
  <g fill="none" fill-rule="evenodd">
    <path fill="#40B6E0" fill-opacity=".7" d="M6.1452,8 C7.1752,8.824 7.8482,10.078 7.8482,11.5 C7.8482,12.922 7.1752,14.176 6.1452,15 L15.8482,15 L15.8482,8 L6.1452,8 Z"/>
    <path fill="#231F20" fill-opacity=".7" d="M10.1669 12.1172L10.1669 10.1852 8.5629 12.1172 10.1669 12.1172zM10.1669 12.8212L7.7059 12.8212 7.5449 12.2082 10.2579 9.0002 11 9.0002 11 12.1172 11.6879 12.1172 11.6879 12.8212 11 12.8212 11 14 10.1669 14 10.1669 12.8212zM12.487 12.6329C12.847 12.9959 13.225 13.2189 13.642 13.2189 14.18 13.2189 14.532 12.8839 14.532 12.3749 14.532 11.8659 14.147 11.5529 13.604 11.5529 13.282 11.5529 13.007 11.6499 12.775 11.7689L12.302 11.4269 12.43 9.0339 15 9.0339 15 9.7949 13.109 9.7949 13.039 10.9389C13.25 10.8559 13.449 10.7989 13.75 10.7989 14.622 10.7989 15.314 11.3019 15.314 12.3329L15.314 12.3479C15.314 13.3449 14.642 13.9999 13.647 13.9999 12.962 13.9999 12.424 13.6999 12 13.2539L12.487 12.6329z"/>
    <polygon fill="#9AA7B0" fill-opacity=".8" points="6.848 0 2.848 4 6.848 4"/>
    <polygon fill="#9AA7B0" fill-opacity=".8" points="7.848 0 7.848 4 7.848 5 6.848 5 2.848 5 2.848 7 12.848 7 12.848 0"/>
    <path fill="#9AA7B0" d="M3.5,8 C1.568,8 0,9.568 0,11.5 C0,13.432 1.568,15 3.5,15 C5.432,15 7,13.432 7,11.5 C7,9.568 5.432,8 3.5,8 Z M3.15,14.2755 C1.7675,14.104 0.7,12.928 0.7,11.5 C0.7,11.283 0.728,11.0765 0.7735,10.8735 L2.45,12.55 L2.45,12.9 C2.45,13.285 2.765,13.6 3.15,13.6 L3.15,14.2755 Z M5.565,13.3865 C5.474,13.103 5.215,12.9 4.9,12.9 L4.55,12.9 L4.55,11.85 C4.55,11.6575 4.3925,11.5 4.2,11.5 L2.1,11.5 L2.1,10.8 L2.8,10.8 C2.9925,10.8 3.15,10.6425 3.15,10.45 L3.15,9.75 L3.85,9.75 C4.235,9.75 4.55,9.435 4.55,9.05 L4.55,8.9065 C5.5755,9.323 6.3,10.3275 6.3,11.5 C6.3,12.228 6.02,12.8895 5.565,13.3865 Z"/>
  </g>
</svg>

<svg xmlns="http://www.w3.org/2000/svg" width="16" height="16" viewBox="0 0 16 16"><rect id="frame" width="16" height="16" fill="none"/><g fill="none" fill-rule="evenodd"><path fill="#40B6E0" fill-opacity=".7" d="M6.145 8c1.03.824 1.703 2.078 1.703 3.5 0 1.422-.673 2.676-1.703 3.5h9.703V8H6.145z"/><path fill="#231F20" fill-opacity=".7" d="M10.167 12.117v-1.932l-1.604 1.932h1.604zm0 .704H7.706l-.161-.613L10.258 9H11v3.117h.688v.704H11V14h-.833v-1.179zm2.32-.188c.36.363.738.586 1.155.586.538 0 .89-.335.89-.844 0-.51-.385-.822-.928-.822-.322 0-.597.097-.829.216l-.473-.342.128-2.393H15v.76h-1.891l-.07 1.145c.211-.083.41-.14.711-.14.872 0 1.564.503 1.564 1.534v.015c0 .997-.672 1.652-1.667 1.652-.685 0-1.223-.3-1.647-.746l.487-.621z"/><path fill="#9AA7B0" fill-opacity=".8" d="M6.848 0l-4 4h4z"/><path fill="#9AA7B0" fill-opacity=".8" d="M7.848 0v5h-5v2h10V0z"/><path fill="#9AA7B0" d="M3.5 8A3.501 3.501 0 0 0 0 11.5C0 13.432 1.568 15 3.5 15S7 13.432 7 11.5 5.432 8 3.5 8zm-.35 6.275a2.796 2.796 0 0 1-2.377-3.402L2.45 12.55v.35c0 .385.315.7.7.7v.675zm2.415-.889A.694.694 0 0 0 4.9 12.9h-.35v-1.05a.351.351 0 0 0-.35-.35H2.1v-.7h.7c.193 0 .35-.158.35-.35v-.7h.7c.385 0 .7-.315.7-.7v-.144A2.802 2.802 0 0 1 6.3 11.5c0 .728-.28 1.39-.735 1.886z"/></g></svg>
